X:1
T:Piano Sonata No. 10 in C major
T:Piano Sonata No. 10 in C major - 3rd Movement
T:Wolfgang Amadeus Mozart 1756–91
C:Wolfgang Amadeus Mozart 1756–91
%%score { ( 1 3 ) | ( 2 4 5 ) }
L:1/8
Q:1/4=80
M:2/4
K:C
V:1 treble nm="Piano" snm="Pno."
V:3 treble 
V:2 bass 
V:4 bass 
V:5 bass 
V:1
"^\n" (e3/2f/4g/4 c).[Bd] | (df/e/) d2 | (e3/2f/4g/4 c).[Bd] | ([df]T[ce]) [Bd]2 | %4
 (f3/2g/4)f/4 e.e | (a3/2b/4)c'/4 g.g | (g/f/)(f/d/) (f/e/)(e/c/) | (^c/d/e/d/ =c/B/A/G/) | %8
 (e3/2f/4g/4 c).[Bd] | (df/e/) d2 | (e3/2f/4g/4 c).[Bd] | ([df]T[ce]) [Bd]2 | f3/2g/4f/4 e.e | %13
 a3/2b/4c'/4 g.g | ^g/a/f/d/ cB | (3c/G/e/(3c/g/e/ (3c'/b/a/(3g/f/e/ | %16
 (3^c/d/f/(3a/f/d/ (3g/e/=c/(3f/d/B/ | (3c/G/e/(3c/g/e/ (3c'/b/a/(3g/f/e/ | %18
 (3^c/d/f/(3a/f/d/ (3g/e/=c/(3f/d/B/ | c.G C2 | (e3{fede} g/f/ | e/d/c/B/ .c).^c | .d.^d .eg/f/ | %23
 e3/2f/4e/4 =d z | (f3{gfef} a/g/ | f/e/d/c/ B/.c/).d/.e/ | .f/.g/.a/.b/ .c'/.d'/.e'/.f'/ | %27
 (^d'2 e') z | (e-(3e/a/c'/ (3e'/c'/a/(3c'/a/e/) | (d-(3d/g/b/ (3d'/b/g/(3b/g/d/) | %30
 (3z/ (d/a/(3c'/a/d/) (3z/ (d/g/(3b/g/d/) | (a/>^f/d) z2 |({G} g2- g/^f/e/d/) | (d/c/B/A/ .d).c | %34
 ^AB z2 | z4 |({G} g2- g/^f/e/d/) | (d/c/B/A/ .d).c | .B z (Te/>^f/g/)g/ | .g z (Ta/>b/c'/)c'/ | %40
 .c' z (Tc'/>d'/e'/)e'/ | (e'/d'/).c'/.b/ .a.d' | (c'b) (Te/>^f/g/).g/ | g z (Ta/>b/c'/)c'/ | %44
 c' z (Tc'/>d'/e'/).e'/ | (e'/d'/)c'/b/ (b/a/)g/^f/ | (d'-(3d'/b/g/ (3^f/a/d/(3g/b/d/) | %47
 (c'-(3c'/^f/d/ (3^c/d/A/(3=c/d/A/) | (d'-(3d'/b/g/ (3^f/a/d/(3g/b/d/) | %49
 (a-(3a/^f/d/ (3^c/d/A/(3=c/d/A/) | (3(B/G/B/(3d/B/d/ (3g/d/g/(3b/g/b/ | %51
 (3d'/b/d'/(3f'/d'/b/ (3g/f/d/(3B/G/=F/ | E/)(e/^d/e/ d/e/d/e/) | (G3 [^FB]/A/) | %54
 (3(B/G/B/(3d/B/d/ (3g/d/g/(3b/g/b/ | (3d'/b/d'/(3=f'/d'/b/ (3=g/f/d/(3B/G/=F/ | %56
 E/)(e/^d/e/ d/e/d/e/) | z/ (g/^f/g/ f/g/f/g/) | (g/d/).d/.d/ (e/d/)c/.B/ | B2 (TA3/2G/4A/4 | %60
 G) z d3/2{^f}e/4d/4 | .d'.c' .b.a | (g2 d3/2{^f}e/4d/4 | .d').c' .b.a | %64
 g z{d} (d'3/2(3c'/4)b/4a/4 | g z{d} (d'3/2(3c'/4)b/4a/4 | z (D/>G/ B)[CA] | ([CA]2 [B,G]) z :: %68
 (dB) .B.TB{AB} | (dc/) z/ A2 | (cB/) z/ (dc/) z/ | (e2 d) z | (dG) (GT^G){GG} | (Ac/) z/ e2 | %74
 (d=G/) z/ (c^F/) z/ | (A2 G) z | (dB) .B.TB{AB} | (dc/) z/ A2 | (cB/) z/ (dc/) z/ | (e2 d) z | %80
 (dc/) z/ (ed/) z/ | (=f2 e) z | (ed/) z/ (fe/) z/ | (g2 f) z | (e3/2f/4g/4 f).e | d2 z g | %86
 (f_e) z c | (Bd) z g | z (f/_e/) z (d/c/) | (Bd) z/ (g/^f/g/) | z/ (_e/d/e/) z/ (c/B/c/) | %91
 (Bd/) z/ (Bd/) z/ | (Bd/) z/ z2 | (df/) z/ (df/) z/ | (df/) z/ z2 | (=e3/2f/4g/4 c).[Bd] | %96
 (df/e/) d2 | (e3/2f/4g/4 c).[Bd] | ([df]T[ce]) [Bd]2 | (f3/2g/4f/4 e).e | (a3/2b/4c'/4 g).g | %101
 (g/f/)(f/d/) (f/e/)(e/c/) | (^c/d/e/d/ =c/B/A/G/) | (e3/2f/4g/4 c).[Bd] | (df/e/) d2 | %105
 (e3/2f/4g/4 c).[Bd] | ([df]T[ce]) [Bd]2 | (f3/2g/4f/4 e).e | (a3/2b/4c'/4 g).g | (^g/a/f/d/ cB) | %110
"_legato" (3c/G/e/(3c/g/e/ (3c'/b/a/(3g/f/e/ | (3^c/d/f/(3a/f/d/ (3g/e/=c/(3f/d/B/ | %112
 (3c/G/e/(3c/g/e/ (3c'/b/a/(3g/f/e/ | (3^c/d/f/(3a/f/d/ (3g/e/=c/(3f/d/B/ | c.G C2 | %115
 (e3{fede} g/f/ | e/d/c/B/ c).^c | .d.^d .e(g/f/) | (e3/2f/4e/4 =d) z | (f3{gfef} a/g/ | %120
 f/e/d/c/ B/).c/.d/.e/ | .f/.g/.a/.b/ .c'/.d'/.e'/.f'/ | (^d'2 e') z | %123
 (_B-(3B/e/g/ (3_b/g/e/(3g/e/B/) | (A-(3A/c/f/ (3a/f/c/(3f/c/A/) | (G-(3G/^c/e/ (3g/e/c/(3e/c/G/) | %126
 (^F-(3F/A/d/ (3^f/d/A/(3d/A/F/) | (=F-(3F/B/d/ (3=f/d/B/(3d/B/F/) | %128
 (E-(3E/G/c/ (3e/c/G/(3c/G/E/) | (3z/ (D/A/(3d/A/D/) (3z/ (D/A/(3c/A/D/) | B2 z/ .g/.a/.b/ | %131
 (c'2- c'/b/a/g/ | g/f/e/d/ .g).f | ^de z2 | z z/ .g/ ._a/.=a/._b/.=b/ | (c'2- c'/b/a/g/) | %136
 (g/f/e/d/ .g).f | .e z (Ta/>b/c'/).c'/ | c' z (Td'/>e'/f'/).f'/ | f' z (Tf/>g/a/).a/ | %140
 (a/g/)f/e/ dg | fe (TA/>B/c/).c/ | c z (Td/>e/f/).f/ | f z (Tf/>g/a/).a/ | %144
 (a/g/).f/.e/ (e/d/).c/.B/ | (g-(3g/e/c/ (3B/d/G/(3c/e/G/) | (d-(3d/B/G/ (3^F/A/D/(3=F/G/D/) | %147
 (g-(3g/e/c/ (3B/d/G/(3c/e/G/) | (d-(3d/B/G/ (3^F/A/D/(3=F/G/D/) | %149
 (3(E/C/E/(3G/E/G/ (3c/G/c/(3e/c/e/ | (3g/e/g/(3_b/g/e/ (3c/_B/G/(3c/A/^G/ | %151
 A/)(a/^g/a/ g/a/g/a/) | (c3 e/d/) | (3(c/G/c/(3e/c/e/ (3g/e/g/(3c'/d'/c'/ | %154
 (3_b/a/g/(3f/e/d/ (3c/d/c/(3_B/A/^G/ | A/)(a/^g/a/ g/a/g/a/) | z/ (c'/=b/c'/ b/c'/b/c'/) | %157
 (c'/g/).g/.g/ (a/g/).f/.e/ | (e2 Td3/2c/4d/4 | c) z (G3/2{/B}A/4G/4 | .g).f .e.d | %161
 (c2 G3/2{/B}A/4G/4 | .g).f .e.d | c z({G} g3/2(3f/4e/4d/4 | c) z{G} (g3/2a/4)b/4 | %165
 c' z (3(g/a/g/(3f/e/d/ | c) z (3(^f/g/^g/(3a/_b/=b/ | c')(G/>c/ e)[Fd] | (([Fd]2 [Ec])) z | %169
 [Adfa] z [DFGB] z | [CEGc] z z2 |] %171
V:2
 z C, E,G, | CC, G,G,, | z C, E,G, | CC, G,G,, | (A,CG,C | F,CE,C) | z [B,G] z [CG] | %7
[K:bass] [G,B,]2 z2 | (C,,/E,,/G,,/C,/ E,,/E,/G,,/G,/ | C,/E,/G,/C/ G,,/B,,/D,/G,/) | %10
 (C,,/E,,/G,,/C,/ E,,/E,/G,,/G,/ | C,/E,/G,/C/ G,,/B,,/D,/G,/) | (A,/C/A,/C/ G,/C/G,/C/ | %13
 F,/C/F,/C/ E,/C/E,/C/) | z F, G,2 |"^legato" [CE]2 z2 | z [F,A,D] G,2 | [CE]2 z2 | z [F,A,D] G,2 | %19
 [CE].G, [C,,C,]2 |[K:treble]"_legato" C/G/^F/G/ C/G/D/G/ | E/G/=F/G/ E/G/^A,/G/ | %22
 B,/G/B,/G/ C/G/D/G/ | C/G/^F/G/ B,/G/F/G/ | B,/G/^F/G/ B,/G/C/G/ | D/G/E/G/ =F/G/D/G/ | %26
 B,/G/D/G/ B,/G/G,/G/ | C/G/E/G/ C/G/E/G/ | (3(C/E/A/c) z2 | (3(B,/D/G/B) z2 | %30
 [^F,A,D] z [G,B,D] z | (D,/D/C/D/ C/D/C/D/) | (B,/D/G,/D/ B,/D/G,/D/ | A,/D/G,/D/ ^F,/D/D,/D/) | %34
"_legato" (G,/D/^C/D/ C/D/E/D/ | =C/D/B,/D/ C/D/A,/D/) | B,/D/G,/D/ B,/D/G,/D/ | %37
 A,/D/G,/D/ ^F,/D/D,/D/ | G,/D/B,/D/ G,/E/C/E/ | G,/D/B,/D/ =F,/C/A,/C/ | E,/C/G,/C/ C,/G,/E,/G,/ | %41
 D,/B,/G,/B,/ D,/C/^F,/C/ | G,/D/B,/D/ G,/E/C/E/ | G,/D/B,/D/ =F,/C/A,/C/ | %44
 E,/C/G,/C/ C,/G,/E,/G,/ | D,/B,/G,/B,/ D,/C/A,/C/ | z ([G,B,] [A,C][B,D]) | %47
 z ([D,^F,] [E,G,][F,A,]) | z ([G,B,] [A,C][B,D]) | z ([D,^F,] [E,G,][F,A,]) | G,2 z2 | %51
 [G,,B,,D,G,-]4 | [C,G,]2 z2 | z ^C, D,2 | [G,B,]2 z2 | [G,,B,,D,G,-]4 | [C,G,]2 z2 | %57
 [^C,_B,]2 z2 |"_legato" D,/=B,/G,/B,/ D,/B,/G,/B,/ | D,/D/G,/D/ D,/C/^F,/C/ | %60
[K:treble] G,/B,/G/B,/ G,/B,/G/B,/ | G,/A,/^F/A,/ G,/C/F/C/ | G,/B,/G/B,/ G,/B,/G/B,/ | %63
 G,/A,/^F/A,/ G,/C/F/C/ | G,/B,/G/B,/ G,/C/^F/C/ | G,/B,/G/B,/ G,/C/^F/C/ | [B,G]2[K:bass] z D, | %67
 G,D, G,, z :: (B,G,) .G,.G, | (B,B,/) z/ ^F,2 | (A,G,/) z/ (B,A,/) z/ | (C2 B,) z | z2 ([B,,D,]2 | %73
 [C,E,]2 [^C,G,]2) | (B,2 A,2) | ([G,C]2 [G,B,]) z |"_legato" B,/D/G,/D/ G,/D/^G,/D/ | %77
 A,/D/G,/D/ ^F,/D/D,/D/ | G,/G/B,/G/ A,/G/C/G/ | C/G/E/G/ B,/G/D/G/ | A,/G/C/G/ B,/G/D/G/ | %81
 D/G/F/G/ C/G/E/G/ | B,/G/D/G/ C/G/E/G/ | E/G/^F/G/ D/G/F/G/ | C/G/^F/G/ B,/G/C/G/ | %85
 G,/G/B,/G/ G,/G/B,/G/ | G,/G/C/G/ G,/G/_E/G/ | G,/G/D/G/ G,/G/B,/G/ | G,/G/C/G/ G,/G/_E/G/ | %89
 G,/G/D/G/ G,/G/B,/G/ | _A,/G/C/G/ A,/^F/C/F/ | [G,G] z [G,G] z | [G,B] z z2 | %93
 [G,B,DF] z [G,B,DF] z | [G,B,DF] z z2 | z C, E,G, | CC, G,G,, | z C, E,G, | CC, G,G,, | (A,CG,C | %100
 F,CE,C) |[K:treble] z [B,G] z [CG] |[K:bass] [G,B,]2 z2 | (C,,/E,,/G,,/C,/ E,,/E,/G,,/G,/ | %104
 C,/E,/G,/C/ G,,/B,,/D,/G,/) | (C,,/E,,/G,,/C,/ E,,/E,/G,,/G,/ | C,/E,/G,/C/ G,,/B,,/D,/G,/) | %107
 (A,/C/A,/C/ G,/C/G,/C/ | F,/C/F,/C/ E,/C/E,/C/) | z [F,D] G,2 | [CE]2 z2 | z [F,A,D] G,2 | %112
 [CE]2 z2 | z [F,A,D] G,2 | [CE].G, [C,,C,]2 |[K:treble]"_legato" C/G/^F/G/ C/G/D/G/ | %116
 E/G/=F/G/ E/G/^A,/G/ | B,/G/B,/G/ C/G/D/G/ | C/G/^F/G/ B,/G/F/G/ | B,/G/^F/G/ B,/G/C/G/ | %120
 D/G/E/G/ =F/G/D/G/ | B,/G/D/G/ B,/G/G,/G/ | C/G/E/G/ C/G/E/G/ | (3(C,/E,/G,/C) z2 | %124
 (3(F,,/A,,/C,/F,) z2 | (3(A,,/^C,/E,/A,) z2 | (3(D,/^F,/A,/D) z2 | (3(B,,/D,/G,/B,) z2 | %128
 (3(C,/E,/G,/C) z2 | [F,A,] z [^F,A,] z | (G,/G/^F/G/ F/G/=F/G/ | E/G/C/G/ E/G/C/G/ | %132
 D/G/C/G/ B,/G/G,/G/) | (C/G/^F/G/ F/G/A/G/ | =F/G/E/G/ F/G/C/G/) | (E/G/C/G/ E/G/C/G/ | %136
 D/G/C/G/ B,/G/G,/G/) |"_legato" C/G/E/G/ C/A/F/A/ | C/G/E/G/ _B,/F/D/F/ | %139
 A,/F/C/F/[K:bass] F,/D/A,/D/ | G,/E/C/E/ G,/F/=B,/F/ | C,/G,/E,/G,/ C,/A,/F,/A,/ | %142
 C,/G,/E,/G,/ _B,,/F,/D,/F,/ | A,,/F,/C,/F,/ F,,/D,/A,,/D,/ | G,,/E,/C,/E,/ G,,/F,/D,/F,/ | %145
 z ([C,E,] [D,F,][E,G,]) | z ([G,,B,,] [A,,C,][B,,D,]) | z ([C,E,] [D,F,][E,G,]) | %148
 z ([G,,B,,] [A,,C,][B,,D,]) | C,2 z2 | C,4 | [F,A,C]2 z2 | z ^F, G,2 | [CE]2 z2 | C,4 | %155
 [F,A,C]2 z2 | [^F,_E]2 z2 | G,/E/C/E/ G,/E/C/E/ | G,/G/C/G/ G,/F/B,/F/ | %159
!p! C,/E,/C/E,/ C,/E,/C/E,/ | C,/D,/B,/D,/ C,/F,/B,/F,/ | C,/E,/C/E,/ C,/E,/C/D,/ | %162
 C,/D,/B,/D,/ C,/F,/B,/F,/ | C,/E,/C/E,/ C,/F,/B,/F,/ | C,/E,/C/E,/ C,/F,/B,/F,/ | %165
 C,/E,/C/E,/ C,/F,/B,/F,/ | C,/E,/C/E,/ C,/F,/B,/F,/ | [C,E,]2 z ^G, | A,3 z | %169
!f! [F,,F,] z [G,,G,] z | [C,,E,,G,,C,] z z2 |] %171
V:3
 x4 | Bc B2 | x4 | x4 | x4 | x4 | x4 | x4 | x4 | Bc B2 | x4 | x4 | x4 | x4 | x4 | x4 | x4 | x4 | %18
 x4 | x4 | x4 | x4 | x4 | x4 | x4 | x4 | x4 | x4 | x4 | x4 | x4 | x4 | x4 | x4 | x4 | x4 | x4 | %37
 x4 | x4 | x4 | x4 | x4 | x4 | x4 | x4 | x4 | x4 | x4 | x4 | x4 | x4 | x4 | x4 | x4 | x4 | x4 | %56
 x4 | x4 | x4 | x4 | x4 | x4 | x4 | x4 | x4 | x4 | g z z2 | x4 :: x4 | x4 | x4 | x4 | x4 | x4 | %74
 x4 | x4 | x4 | x4 | x4 | x4 | x4 | x4 | x4 | x4 | x4 | x4 | x4 | x4 | x4 | x4 | x4 | x4 | x4 | %93
 x4 | x4 | x4 | Bc B2 | x4 | x4 | x4 | x4 | x4 | x4 | x4 | Bc B2 | x4 | x4 | x4 | x4 | x4 | x4 | %111
 x4 | x4 | x4 | x4 | x4 | x4 | x4 | x4 | x4 | x4 | x4 | x4 | x4 | x4 | x4 | x4 | x4 | x4 | x4 | %130
 x4 | x4 | x4 | x4 | x4 | x4 | x4 | x4 | x4 | x4 | x4 | x4 | x4 | x4 | x4 | x4 | x4 | x4 | x4 | %149
 x4 | x4 | x4 | x3 B | x4 | x4 | x4 | x4 | x4 | x4 | x4 | x4 | x4 | x4 | x4 | x4 | x4 | x4 | x4 | %168
 x4 | x4 | x4 |] %171
V:4
 x4 | x4 | x4 | x4 | x4 | x4 | x4 |[K:bass] x4 | x4 | x4 | x4 | x4 | x4 | x4 | z (D ED) | x4 | %16
 z2 ([CE][DF]) | x4 | z2 ([CE][DF]) | x4 |[K:treble] x4 | x4 | x4 | x4 | x4 | x4 | x4 | x4 | x4 | %29
 x4 | x4 | x4 | x4 | x4 | x4 | x4 | x4 | x4 | x4 | x4 | x4 | x4 | x4 | x4 | x4 | x4 | x4 | x4 | %48
 x4 | x4 | x4 | x4 | x4 | z _B, =B,=C | x4 | x4 | x4 | x4 | x4 | x4 |[K:treble] x4 | x4 | x4 | x4 | %64
 x4 | x4 | x2[K:bass] x2 | x4 :: D2 DD | D2 D2 | D2 D2 | D3 z | x4 | x4 | D,4 | x4 | x4 | x4 | x4 | %79
 x4 | x4 | x4 | x4 | x4 | x4 | x4 | x4 | x4 | x4 | x4 | x4 | x4 | x4 | x4 | x4 | x4 | x4 | x4 | %98
 x4 | x4 | x4 |[K:treble] x4 |[K:bass] x4 | x4 | x4 | x4 | x4 | x4 | x4 | z2 ED | x4 | %111
 z2 ([CE][DF]) | x4 | z2 ([CE][DF]) | x4 |[K:treble] x4 | x4 | x4 | x4 | x4 | x4 | x4 | x4 | x4 | %124
 x4 | x4 | x4 | x4 | x4 | x4 | x4 | x4 | x4 | x4 | x4 | x4 | x4 | x4 | x4 | x2[K:bass] x2 | x4 | %141
 x4 | x4 | x4 | x4 | x4 | x4 | x4 | x4 | x4 | C4- | x4 | z _E =E=F | x4 | C4- | x4 | x4 | x4 | x4 | %159
 x4 | x4 | x4 | x4 | x4 | x4 | x4 | x4 | x4 | x4 | x4 | x4 |] %171
V:5
 x4 | x4 | x4 | x4 | x4 | x4 | x4 |[K:bass] x4 | x4 | x4 | x4 | x4 | x4 | x4 | x4 | x4 | x4 | x4 | %18
 x4 | x4 |[K:treble] x4 | x4 | x4 | x4 | x4 | x4 | x4 | x4 | x4 | x4 | x4 | x4 | x4 | x4 | x4 | %35
 x4 | x4 | x4 | x4 | x4 | x4 | x4 | x4 | x4 | x4 | x4 | x4 | x4 | x4 | x4 | x4 | x4 | x4 | x4 | %54
 x4 | x4 | x4 | x4 | x4 | x4 |[K:treble] x4 | x4 | x4 | x4 | x4 | x4 | x2[K:bass] x2 | x4 :: x4 | %69
 x4 | x4 | x4 | x4 | x4 | x4 | x4 | x4 | x4 | x4 | x4 | x4 | x4 | x4 | x4 | x4 | x4 | x4 | x4 | %88
 x4 | x4 | x4 | x4 | x4 | x4 | x4 | x4 | x4 | x4 | x4 | x4 | x4 |[K:treble] x4 |[K:bass] x4 | x4 | %104
 x4 | x4 | x4 | x4 | x4 | x4 | x4 | x4 | x4 | x4 | x4 |[K:treble] x4 | x4 | x4 | x4 | x4 | x4 | %121
 x4 | x4 | x4 | x4 | x4 | x4 | x4 | x4 | x4 | x4 | x4 | x4 | x4 | x4 | x4 | x4 | x4 | x4 | %139
 x2[K:bass] x2 | x4 | x4 | x4 | x4 | x4 | x4 | x4 | x4 | x4 | x4 | G,3 _B, | x4 | x4 | x4 | %154
 G,3 _B, | x4 | x4 | x4 | x4 | x4 | x4 | x4 | x4 | x4 | x4 | x4 | x4 | x4 | x4 | x4 | x4 |] %171

